!!!COM: Mozart
!!!OTL: 12 Variations on "Ah Vous dirais-je, Maman" for the Piano
!!!Variation: 11 a
**function	**harm	**kern	**kern
*	*	*clefF4	*clefG2
*	*	*k[]	*k[]
*M2/4	*M2/4	*M2/4	*M2/4
*C:	*C:	*C:	*C:
=265	=265	=265	=265
2T	2I	2r	(8.ccL
.	.	.	16gJk)
.	.	.	(8.eeL
.	.	.	16ccJk)
=266	=266	=266	=266
2T	2I	(8.cL	8gg
.	.	.	4gg
.	.	16GJk)	.
.	.	(8.eL	.
.	.	.	8gg
.	.	16cJk)	.
=267	=267	=267	=267
2T	2IV	(8.FL	8cc 8gg 8aa
.	.	.	4cc 4ff 4aa
.	.	16CJk)	.
.	.	(8.AL	.
.	.	.	8cc 8ff 8aa
.	.	16FJk)	.
=268	=268	=268	=268
2T	2I	(8.CL	8cc 8ff 8gg
.	.	.	4cc 4ee 4gg
.	.	16GGJk)	.
.	.	(8.EL	.
.	.	.	8cc 8ee 8gg
.	.	16CJk)	.
=269	=269	=269	=269
4T	4IVb	8A 8c 8f	(16ggLL
.	.	.	16ffJ)
.	.	8r	8ffJ
4T	4Vb	8B 8d 8g	16r
.	.	.	(32eeeLLL
.	.	.	32dddJJ)
.	.	8r	(32cccLL
.	.	.	32bb)
.	.	.	(32aa
.	.	.	32ggJJJ)
=270	=270	=270	=270
4T	4I	8c 8e 8g	(16.ffLL
.	.	.	32dd#Jk
.	.	8r	8eeJ)
4T	4Ib	8E 8G 8c	16r
.	.	.	(32aaLLL
.	.	.	32ggJJ)
.	.	8r	(32ffLL
.	.	.	32ee)
.	.	.	(32dd
.	.	.	32ccJJJ)
=271	=271	=271	=271
*	*	*^	*
4P	4iib	4d	4F	(16.bLL
.	.	.	.	32aJk)
.	.	.	.	(32ggLL
.	.	.	.	32ff
.	.	.	.	32ee
.	.	.	.	32ddJJJ
4D	4V7	8gL	4G	8ccL)
.	.	8fJ	.	8b'J
*	*	*v	*v	*
=272	=272	=272	=272
2T	2I	8cL	(4f 4g 4b 4dd
.	.	8GJ	.
.	.	8C	8e) 8g 8cc
.	.	8r	8r
*-	*-	*-	*-
